!!!COM: Fe/licien David
!!!CNT: Francais
!!!TXO: Francais
!!!OTL: L'Amour Cre/ateur
!!!LYR: Tyrte/e Tastet
!!!ENC: Jacob Pegg
!!!YOR: Romantic French Song 1830-1870, David Tunley, ed., New York: Garland Publishing, Inc., 1995
!!!ODT: 1847/
!!NB: Vocal melody and text only encoded.
!!NB: Only first strophe encoded.
**kern	**silbe
*clef G2	*
*k[b-e-]	*
*M6/8	*
=9	=9
{(4b-	{Quand
8a)	|
4b-	l'om-
8cc	-bre
=10	=10
(4dd	voi-
8b-)	|
4.ee-	-le
=11	=11
4.dd	Le
(8b-	jour
8dd)	|
8cc	dor-
=12	=12
[4.f	-mant,
8f]}	|}
8r	.
8r	.
=13	=13
{4.cc	{Qu'est
4dd	sans
8b-	e/-
=14	=14
(4.cc	-toi-
ee-q)	|
4.ee-	-le,
=15	=15
4.dd	Le
(8cc	fir-
8dd)	|
8cc	-ma-
=16	=16
[4.b-	-ment?
4b-]}	|}
8r	.
=17	=17
{8dd	{Eh!
8dd	bien,
8dd	o^
4een	no-
8dd	-ble
=18	=18
(4.cc#	da-
ddq)	|
4.dd	-me,
=19	=19
8b-	Quand
8a	ton
8b-	re-
4f	-gard
8g	me
=20	=20
[4.a	fuit
4a]}	|}
8r	.
=21	=21
{8a	{Je
8g	sens
8f#	que
4g	dans
8dd	mon
=22	=22
4.dd	a^-
4.cc	-me
=23	=23
8c	Tout
8b-	s'e/-
8a	-teint,
4b-	s'as-
8c	-som-
=24	=24
4.a}	-brit,}
{4g	{Tout
8g	s'e/-
=25	=25
4.f	-teint,
4e-	s'as-
8e-	-som-
=26	=26
4.d	-brit,
(8g	Tout
16aq	|
16gq	|
8f#)	|
8g	s'e/-
=27	=27
4.b-	-teint,
4fn	s'as-
8g	-som-
=28	=28
2.f}	-brit.}
*-	*-
